public/images/agent1.svg

<svg width="175" height="175" viewBox="0 0 175 175" fill="none" xmlns="http://www.w3.org/2000/svg">
<circle cx="87.5" cy="87.5" r="86.5" fill="white" stroke="#00C0FF"/>
<mask id="path-2-inside-1_91_1364" fill="white">
<path fill-rule="evenodd" clip-rule="evenodd" d="M43.8597 103.164H36V138.921H43.8553C45.4511 138.921 46.764 137.613 46.764 136.012V106.068C46.764 104.472 45.451 103.164 43.8597 103.164ZM49.8584 111.527V130.756C54.8713 131.269 59.557 133.364 63.978 135.34C67.9344 137.108 71.6565 138.779 74.9145 138.929L100.191 139C101.261 139 102.145 138.757 103.064 138.209L131.957 120.863C132.24 120.355 132.381 119.811 132.377 119.228C132.377 118.494 132.165 117.68 131.74 116.788C131.042 115.656 130.233 114.966 129.318 114.719C128.367 114.462 127.209 114.63 125.852 115.227L102.538 128.683C102.211 128.887 101.954 128.957 101.574 128.944L78.039 128.931C77.1902 128.931 76.5006 128.241 76.5006 127.393C76.5006 126.544 77.1902 125.854 78.039 125.854L99.7 125.863C96.8488 117.637 84.8776 118.233 75.5776 119.807C75.1533 119.878 74.8615 119.931 74.698 119.957C74.0879 120.094 73.4293 119.847 73.0712 119.294C71.387 116.695 68.213 114.741 64.1859 113.442C60.0483 112.098 55.07 111.461 49.8584 111.527ZM95.0227 42.2239C95.0227 41.3663 95.7123 40.6767 96.5699 40.6767C97.4275 40.6767 98.1171 41.3663 98.1171 42.2239V45.0265H100.495C101.353 45.0265 102.043 45.716 102.043 46.5736C102.043 47.4312 101.353 48.1208 100.495 48.1208H94.6957C93.007 48.1208 92.0964 50.1895 93.3298 51.4185C93.6834 51.7721 94.1652 51.9887 94.6957 51.9887H98.0023C102.436 51.9887 104.735 57.3904 101.556 60.5731C100.672 61.4572 99.4565 62.0186 98.1171 62.0496V64.8566C98.1171 65.7142 97.4275 66.4038 96.5699 66.4038C95.7123 66.4038 95.0227 65.7142 95.0227 64.8566V62.054H91.3713C90.5137 62.054 89.8241 61.3644 89.8241 60.5068C89.8241 59.6493 90.5137 58.9597 91.3713 58.9597H98.011C99.6996 58.9597 100.61 56.8909 99.3769 55.662C98.7668 55.052 98.1921 55.0917 97.4496 55.0917H94.7C90.2661 55.0917 87.9675 49.69 91.1459 46.5073C92.0565 45.5967 93.312 45.0309 94.7 45.0309H95.0271L95.0227 42.2239ZM133.861 63.2563C127.009 56.4047 115.901 56.4047 109.053 63.2563C102.201 70.108 102.201 81.2164 109.053 88.0639C115.905 94.9156 127.013 94.9156 133.861 88.0639C140.713 81.2167 140.713 70.1084 133.861 63.2563ZM83.6575 63.2563C76.8057 56.4047 65.697 56.4047 58.8494 63.2563C51.9975 70.108 51.9975 81.2164 58.8494 88.0639C65.7012 94.9156 76.8099 94.9156 83.6575 88.0639C90.5093 81.2167 90.5093 70.1084 83.6575 63.2563ZM79.0646 56.5549C85.0013 58.9861 89.5236 64.0829 91.1948 70.3201C94.5367 71.3412 98.1748 71.3412 101.521 70.3201C103.188 64.0829 107.714 58.9857 113.651 56.5549C115.49 45.8133 107.259 36 96.3585 36C85.4577 36 77.2256 45.8046 79.0646 56.5549ZM128.769 69.348C129.507 68.9237 130.449 69.18 130.873 69.9138C131.298 70.652 131.041 71.5936 130.307 72.018L114.146 81.3495C113.408 81.7739 112.467 81.5175 112.042 80.7837C111.618 80.0455 111.874 79.1039 112.608 78.6796L128.769 69.348ZM124.216 64.322C124.777 64.8834 124.777 65.794 124.216 66.3554C123.314 67.2572 121.758 66.6162 121.758 65.3387C121.763 64.0612 123.314 63.4202 124.216 64.322ZM123.199 60.8077C127.222 60.8077 129.255 65.6967 126.404 68.5434C123.557 71.3902 118.668 69.3656 118.668 65.3387C118.668 62.8367 120.697 60.8077 123.199 60.8077ZM121.091 84.4565C121.652 85.0179 121.652 85.9286 121.091 86.49C120.189 87.3917 118.633 86.7508 118.633 85.4733C118.637 84.1958 120.189 83.5548 121.091 84.4565ZM120.074 80.9423C124.097 80.9423 126.13 85.8312 123.279 88.678C120.432 91.5247 115.543 89.5002 115.543 85.4732C115.543 82.9713 117.568 80.9423 120.074 80.9423ZM70.2064 64.3435C70.2064 63.4859 70.8961 62.7963 71.7536 62.7963C72.6112 62.7963 73.3008 63.4859 73.3008 64.3435V67.1461H75.6791C76.5367 67.1461 77.2263 67.8357 77.2263 68.6933C77.2263 69.5508 76.5367 70.2404 75.6791 70.2404H69.8794C68.1907 70.2404 67.2801 72.3092 68.5135 73.5381C68.8671 73.8917 69.349 74.1083 69.8794 74.1083H73.186C77.6198 74.1083 79.9184 79.5101 76.7401 82.6928C75.856 83.5769 74.6403 84.1382 73.3008 84.1692V86.9762C73.3008 87.8338 72.6112 88.5234 71.7536 88.5234C70.8961 88.5234 70.2064 87.8338 70.2064 86.9762V84.1736H66.555C65.6975 84.1736 65.0079 83.484 65.0079 82.6265C65.0079 81.7689 65.6975 81.0793 66.555 81.0793H73.1947C74.8834 81.0793 75.794 79.0106 74.5606 77.7816C73.9506 77.1716 73.3759 77.2114 72.6333 77.2114H69.8837C65.4499 77.2114 63.1513 71.8097 66.3296 68.6269C67.2403 67.7163 68.4957 67.1505 69.8837 67.1505H70.2108L70.2064 64.3435ZM81.987 102.174C81.987 101.316 82.6766 100.627 83.5342 100.627C84.3918 100.627 85.0814 101.316 85.0814 102.174V108.884C85.0814 109.742 84.3918 110.431 83.5342 110.431C82.6766 110.431 81.987 109.742 81.987 108.884V102.174ZM90.47 108.336C90.47 107.478 91.1596 106.789 92.0172 106.789C92.8748 106.789 93.5644 107.478 93.5644 108.336V109.547C93.5644 110.405 92.8748 111.094 92.0172 111.094C91.1596 111.094 90.47 110.405 90.47 109.547V108.336ZM90.47 97.4352C90.47 96.5776 91.1596 95.888 92.0172 95.888C92.8748 95.888 93.5644 96.5776 93.5644 97.4352V103.403C93.5644 104.26 92.8748 104.95 92.0172 104.95C91.1596 104.95 90.47 104.26 90.47 103.403V97.4352ZM98.9486 99.8443C98.9486 98.9868 99.6382 98.2972 100.496 98.2972C101.353 98.2972 102.043 98.9868 102.043 99.8443V106.555C102.043 107.412 101.353 108.102 100.496 108.102C99.6382 108.102 98.9486 107.412 98.9486 106.555V99.8443ZM107.432 112.517C107.432 111.66 108.121 110.97 108.979 110.97C109.836 110.97 110.526 111.66 110.526 112.517V113.729C110.526 114.586 109.836 115.276 108.979 115.276C108.121 115.276 107.432 114.586 107.432 113.729V112.517ZM107.432 101.617C107.432 100.759 108.121 100.07 108.979 100.07C109.836 100.07 110.526 100.759 110.526 101.617V107.584C110.526 108.442 109.836 109.131 108.979 109.131C108.121 109.131 107.432 108.442 107.432 107.584V101.617Z"/>
</mask>
<path fill-rule="evenodd" clip-rule="evenodd" d="M43.8597 103.164H36V138.921H43.8553C45.4511 138.921 46.764 137.613 46.764 136.012V106.068C46.764 104.472 45.451 103.164 43.8597 103.164ZM49.8584 111.527V130.756C54.8713 131.269 59.557 133.364 63.978 135.34C67.9344 137.108 71.6565 138.779 74.9145 138.929L100.191 139C101.261 139 102.145 138.757 103.064 138.209L131.957 120.863C132.24 120.355 132.381 119.811 132.377 119.228C132.377 118.494 132.165 117.68 131.74 116.788C131.042 115.656 130.233 114.966 129.318 114.719C128.367 114.462 127.209 114.63 125.852 115.227L102.538 128.683C102.211 128.887 101.954 128.957 101.574 128.944L78.039 128.931C77.1902 128.931 76.5006 128.241 76.5006 127.393C76.5006 126.544 77.1902 125.854 78.039 125.854L99.7 125.863C96.8488 117.637 84.8776 118.233 75.5776 119.807C75.1533 119.878 74.8615 119.931 74.698 119.957C74.0879 120.094 73.4293 119.847 73.0712 119.294C71.387 116.695 68.213 114.741 64.1859 113.442C60.0483 112.098 55.07 111.461 49.8584 111.527ZM95.0227 42.2239C95.0227 41.3663 95.7123 40.6767 96.5699 40.6767C97.4275 40.6767 98.1171 41.3663 98.1171 42.2239V45.0265H100.495C101.353 45.0265 102.043 45.716 102.043 46.5736C102.043 47.4312 101.353 48.1208 100.495 48.1208H94.6957C93.007 48.1208 92.0964 50.1895 93.3298 51.4185C93.6834 51.7721 94.1652 51.9887 94.6957 51.9887H98.0023C102.436 51.9887 104.735 57.3904 101.556 60.5731C100.672 61.4572 99.4565 62.0186 98.1171 62.0496V64.8566C98.1171 65.7142 97.4275 66.4038 96.5699 66.4038C95.7123 66.4038 95.0227 65.7142 95.0227 64.8566V62.054H91.3713C90.5137 62.054 89.8241 61.3644 89.8241 60.5068C89.8241 59.6493 90.5137 58.9597 91.3713 58.9597H98.011C99.6996 58.9597 100.61 56.8909 99.3769 55.662C98.7668 55.052 98.1921 55.0917 97.4496 55.0917H94.7C90.2661 55.0917 87.9675 49.69 91.1459 46.5073C92.0565 45.5967 93.312 45.0309 94.7 45.0309H95.0271L95.0227 42.2239ZM133.861 63.2563C127.009 56.4047 115.901 56.4047 109.053 63.2563C102.201 70.108 102.201 81.2164 109.053 88.0639C115.905 94.9156 127.013 94.9156 133.861 88.0639C140.713 81.2167 140.713 70.1084 133.861 63.2563ZM83.6575 63.2563C76.8057 56.4047 65.697 56.4047 58.8494 63.2563C51.9975 70.108 51.9975 81.2164 58.8494 88.0639C65.7012 94.9156 76.8099 94.9156 83.6575 88.0639C90.5093 81.2167 90.5093 70.1084 83.6575 63.2563ZM79.0646 56.5549C85.0013 58.9861 89.5236 64.0829 91.1948 70.3201C94.5367 71.3412 98.1748 71.3412 101.521 70.3201C103.188 64.0829 107.714 58.9857 113.651 56.5549C115.49 45.8133 107.259 36 96.3585 36C85.4577 36 77.2256 45.8046 79.0646 56.5549ZM128.769 69.348C129.507 68.9237 130.449 69.18 130.873 69.9138C131.298 70.652 131.041 71.5936 130.307 72.018L114.146 81.3495C113.408 81.7739 112.467 81.5175 112.042 80.7837C111.618 80.0455 111.874 79.1039 112.608 78.6796L128.769 69.348ZM124.216 64.322C124.777 64.8834 124.777 65.794 124.216 66.3554C123.314 67.2572 121.758 66.6162 121.758 65.3387C121.763 64.0612 123.314 63.4202 124.216 64.322ZM123.199 60.8077C127.222 60.8077 129.255 65.6967 126.404 68.5434C123.557 71.3902 118.668 69.3656 118.668 65.3387C118.668 62.8367 120.697 60.8077 123.199 60.8077ZM121.091 84.4565C121.652 85.0179 121.652 85.9286 121.091 86.49C120.189 87.3917 118.633 86.7508 118.633 85.4733C118.637 84.1958 120.189 83.5548 121.091 84.4565ZM120.074 80.9423C124.097 80.9423 126.13 85.8312 123.279 88.678C120.432 91.5247 115.543 89.5002 115.543 85.4732C115.543 82.9713 117.568 80.9423 120.074 80.9423ZM70.2064 64.3435C70.2064 63.4859 70.8961 62.7963 71.7536 62.7963C72.6112 62.7963 73.3008 63.4859 73.3008 64.3435V67.1461H75.6791C76.5367 67.1461 77.2263 67.8357 77.2263 68.6933C77.2263 69.5508 76.5367 70.2404 75.6791 70.2404H69.8794C68.1907 70.2404 67.2801 72.3092 68.5135 73.5381C68.8671 73.8917 69.349 74.1083 69.8794 74.1083H73.186C77.6198 74.1083 79.9184 79.5101 76.7401 82.6928C75.856 83.5769 74.6403 84.1382 73.3008 84.1692V86.9762C73.3008 87.8338 72.6112 88.5234 71.7536 88.5234C70.8961 88.5234 70.2064 87.8338 70.2064 86.9762V84.1736H66.555C65.6975 84.1736 65.0079 83.484 65.0079 82.6265C65.0079 81.7689 65.6975 81.0793 66.555 81.0793H73.1947C74.8834 81.0793 75.794 79.0106 74.5606 77.7816C73.9506 77.1716 73.3759 77.2114 72.6333 77.2114H69.8837C65.4499 77.2114 63.1513 71.8097 66.3296 68.6269C67.2403 67.7163 68.4957 67.1505 69.8837 67.1505H70.2108L70.2064 64.3435ZM81.987 102.174C81.987 101.316 82.6766 100.627 83.5342 100.627C84.3918 100.627 85.0814 101.316 85.0814 102.174V108.884C85.0814 109.742 84.3918 110.431 83.5342 110.431C82.6766 110.431 81.987 109.742 81.987 108.884V102.174ZM90.47 108.336C90.47 107.478 91.1596 106.789 92.0172 106.789C92.8748 106.789 93.5644 107.478 93.5644 108.336V109.547C93.5644 110.405 92.8748 111.094 92.0172 111.094C91.1596 111.094 90.47 110.405 90.47 109.547V108.336ZM90.47 97.4352C90.47 96.5776 91.1596 95.888 92.0172 95.888C92.8748 95.888 93.5644 96.5776 93.5644 97.4352V103.403C93.5644 104.26 92.8748 104.95 92.0172 104.95C91.1596 104.95 90.47 104.26 90.47 103.403V97.4352ZM98.9486 99.8443C98.9486 98.9868 99.6382 98.2972 100.496 98.2972C101.353 98.2972 102.043 98.9868 102.043 99.8443V106.555C102.043 107.412 101.353 108.102 100.496 108.102C99.6382 108.102 98.9486 107.412 98.9486 106.555V99.8443ZM107.432 112.517C107.432 111.66 108.121 110.97 108.979 110.97C109.836 110.97 110.526 111.66 110.526 112.517V113.729C110.526 114.586 109.836 115.276 108.979 115.276C108.121 115.276 107.432 114.586 107.432 113.729V112.517ZM107.432 101.617C107.432 100.759 108.121 100.07 108.979 100.07C109.836 100.07 110.526 100.759 110.526 101.617V107.584C110.526 108.442 109.836 109.131 108.979 109.131C108.121 109.131 107.432 108.442 107.432 107.584V101.617Z" fill="url(#paint0_linear_91_1364)" stroke="url(#paint1_linear_91_1364)" stroke-width="2.4" mask="url(#path-2-inside-1_91_1364)"/>
<defs>
<linearGradient id="paint0_linear_91_1364" x1="36" y1="87.5" x2="139" y2="87.5" gradientUnits="userSpaceOnUse">
<stop offset="0.395452" stop-color="#084196"/>
<stop offset="1" stop-color="#00C0FF"/>
</linearGradient>
<linearGradient id="paint1_linear_91_1364" x1="36" y1="87.5" x2="139" y2="87.5" gradientUnits="userSpaceOnUse">
<stop stop-color="#084398"/>
<stop offset="1" stop-color="#00BEFD"/>
</linearGradient>
</defs>
</svg>

<svg xmlns="http://www.w3.org/2000/svg" width="175" height="175" fill="none"><circle cx="87.5" cy="87.5" r="86.5" fill="#fff" stroke="#00C0FF"/><mask id="c" fill="#fff"><path fill-rule="evenodd" d="M43.86 103.164H36v35.757h7.855a2.92 2.92 0 0 0 2.909-2.909v-29.944a2.917 2.917 0 0 0-2.904-2.904m5.998 8.363v19.229c5.013.513 9.699 2.608 14.12 4.584 3.956 1.768 7.678 3.439 10.937 3.589l25.276.071c1.07 0 1.954-.243 2.873-.791l28.893-17.346a3.26 3.26 0 0 0 .42-1.635q0-1.102-.637-2.44-1.048-1.698-2.422-2.069c-.951-.257-2.109-.089-3.466.508l-23.314 13.456a1.53 1.53 0 0 1-.964.261l-23.535-.013a1.54 1.54 0 0 1 0-3.077l21.661.009c-2.851-8.226-14.822-7.63-24.122-6.056-.425.071-.716.124-.88.15a1.54 1.54 0 0 1-1.627-.663c-1.684-2.599-4.858-4.553-8.885-5.852-4.138-1.344-9.116-1.981-14.328-1.915m45.165-69.303c0-.858.69-1.547 1.547-1.547.858 0 1.547.69 1.547 1.547v2.803h2.378c.858 0 1.548.689 1.548 1.547 0 .857-.69 1.547-1.548 1.547h-5.8c-1.688 0-2.599 2.069-1.365 3.297.353.354.835.57 1.366.57h3.306c4.434 0 6.733 5.402 3.554 8.585a5.03 5.03 0 0 1-3.439 1.477v2.807c0 .857-.69 1.547-1.547 1.547-.858 0-1.547-.69-1.547-1.547v-2.803H91.37c-.857 0-1.547-.69-1.547-1.547 0-.858.69-1.547 1.547-1.547h6.64c1.689 0 2.599-2.07 1.366-3.298-.61-.61-1.185-.57-1.927-.57H94.7c-4.434 0-6.733-5.402-3.554-8.585a5 5 0 0 1 3.554-1.476h.327zm38.838 21.032c-6.852-6.851-17.96-6.851-24.808 0-6.852 6.852-6.852 17.96 0 24.808 6.852 6.852 17.96 6.852 24.808 0 6.852-6.847 6.852-17.956 0-24.808m-50.203 0c-6.852-6.851-17.961-6.851-24.809 0-6.851 6.852-6.851 17.96 0 24.808 6.852 6.852 17.96 6.852 24.809 0 6.851-6.847 6.851-17.956 0-24.808m-4.593-6.701a20.7 20.7 0 0 1 12.13 13.765 17.8 17.8 0 0 0 10.326 0c1.667-6.237 6.193-11.334 12.13-13.765C115.49 45.813 107.259 36 96.359 36s-19.133 9.805-17.294 20.555m49.704 12.793a1.544 1.544 0 0 1 2.104.566c.425.738.168 1.68-.566 2.104l-16.161 9.332a1.544 1.544 0 0 1-2.104-.566 1.544 1.544 0 0 1 .566-2.104zm-4.553-5.026a1.44 1.44 0 0 1 0 2.033c-.902.902-2.458.261-2.458-1.016.005-1.278 1.556-1.919 2.458-1.017m-1.017-3.514c4.023 0 6.056 4.889 3.205 7.735-2.847 2.847-7.736.823-7.736-3.204a4.53 4.53 0 0 1 4.531-4.531m-2.108 23.649a1.44 1.44 0 0 1 0 2.033c-.902.902-2.458.26-2.458-1.017.004-1.277 1.556-1.918 2.458-1.016m-1.017-3.515c4.023 0 6.056 4.89 3.205 7.736-2.847 2.847-7.736.822-7.736-3.205a4.53 4.53 0 0 1 4.531-4.53M70.206 64.344c0-.858.69-1.548 1.548-1.548.857 0 1.547.69 1.547 1.548v2.802h2.378c.858 0 1.547.69 1.547 1.547 0 .858-.69 1.547-1.547 1.547h-5.8c-1.688 0-2.599 2.07-1.366 3.298.354.354.836.57 1.366.57h3.307c4.434 0 6.732 5.402 3.554 8.585a5.03 5.03 0 0 1-3.44 1.476v2.807c0 .858-.689 1.547-1.546 1.547s-1.548-.69-1.548-1.547v-2.802h-3.651c-.858 0-1.547-.69-1.547-1.548 0-.857.69-1.547 1.547-1.547h6.64c1.688 0 2.599-2.068 1.366-3.297-.61-.61-1.185-.57-1.928-.57h-2.75c-4.433 0-6.732-5.402-3.553-8.585a5 5 0 0 1 3.554-1.477h.327zm11.781 37.83c0-.858.69-1.547 1.547-1.547.858 0 1.547.689 1.547 1.547v6.71c0 .858-.69 1.547-1.547 1.547a1.543 1.543 0 0 1-1.547-1.547zm8.483 6.162c0-.858.69-1.547 1.547-1.547.858 0 1.547.689 1.547 1.547v1.211c0 .858-.69 1.547-1.547 1.547a1.543 1.543 0 0 1-1.547-1.547zm0-10.9c0-.858.69-1.548 1.547-1.548.858 0 1.547.69 1.547 1.547v5.968c0 .857-.69 1.547-1.547 1.547s-1.547-.69-1.547-1.547zm8.479 2.408c0-.857.69-1.547 1.547-1.547s1.547.69 1.547 1.547v6.711c0 .857-.69 1.547-1.547 1.547-.858 0-1.547-.69-1.547-1.547zm8.483 12.673c0-.857.689-1.547 1.547-1.547.857 0 1.547.69 1.547 1.547v1.212c0 .857-.69 1.547-1.547 1.547-.858 0-1.547-.69-1.547-1.547zm0-10.9c0-.858.689-1.547 1.547-1.547.857 0 1.547.689 1.547 1.547v5.967c0 .858-.69 1.547-1.547 1.547a1.54 1.54 0 0 1-1.547-1.547z" clip-rule="evenodd"/></mask><path fill="url(#a)" fill-rule="evenodd" stroke="url(#b)" stroke-width="2.4" d="M43.86 103.164H36v35.757h7.855a2.92 2.92 0 0 0 2.909-2.909v-29.944a2.917 2.917 0 0 0-2.904-2.904Zm5.998 8.363v19.229c5.013.513 9.699 2.608 14.12 4.584 3.956 1.768 7.678 3.439 10.937 3.589l25.276.071c1.07 0 1.954-.243 2.873-.791l28.893-17.346a3.26 3.26 0 0 0 .42-1.635q0-1.102-.637-2.44-1.048-1.698-2.422-2.069c-.951-.257-2.109-.089-3.466.508l-23.314 13.456a1.53 1.53 0 0 1-.964.261l-23.535-.013a1.54 1.54 0 0 1 0-3.077l21.661.009c-2.851-8.226-14.822-7.63-24.122-6.056-.425.071-.716.124-.88.15a1.54 1.54 0 0 1-1.627-.663c-1.684-2.599-4.858-4.553-8.885-5.852-4.138-1.344-9.116-1.981-14.328-1.915Zm45.165-69.303c0-.858.69-1.547 1.547-1.547.858 0 1.547.69 1.547 1.547v2.803h2.378c.858 0 1.548.689 1.548 1.547 0 .857-.69 1.547-1.548 1.547h-5.8c-1.688 0-2.599 2.069-1.365 3.297.353.354.835.57 1.366.57h3.306c4.434 0 6.733 5.402 3.554 8.585a5.03 5.03 0 0 1-3.439 1.477v2.807c0 .857-.69 1.547-1.547 1.547-.858 0-1.547-.69-1.547-1.547v-2.803H91.37c-.857 0-1.547-.69-1.547-1.547 0-.858.69-1.547 1.547-1.547h6.64c1.689 0 2.599-2.07 1.366-3.298-.61-.61-1.185-.57-1.927-.57H94.7c-4.434 0-6.733-5.402-3.554-8.585a5 5 0 0 1 3.554-1.476h.327zm38.838 21.032c-6.852-6.851-17.96-6.851-24.808 0-6.852 6.852-6.852 17.96 0 24.808 6.852 6.852 17.96 6.852 24.808 0 6.852-6.847 6.852-17.956 0-24.808Zm-50.203 0c-6.852-6.851-17.961-6.851-24.809 0-6.851 6.852-6.851 17.96 0 24.808 6.852 6.852 17.96 6.852 24.809 0 6.851-6.847 6.851-17.956 0-24.808Zm-4.593-6.701a20.7 20.7 0 0 1 12.13 13.765 17.8 17.8 0 0 0 10.326 0c1.667-6.237 6.193-11.334 12.13-13.765C115.49 45.813 107.259 36 96.359 36s-19.133 9.805-17.294 20.555Zm49.704 12.793a1.544 1.544 0 0 1 2.104.566c.425.738.168 1.68-.566 2.104l-16.161 9.332a1.544 1.544 0 0 1-2.104-.566 1.544 1.544 0 0 1 .566-2.104zm-4.553-5.026a1.44 1.44 0 0 1 0 2.033c-.902.902-2.458.261-2.458-1.016.005-1.278 1.556-1.919 2.458-1.017Zm-1.017-3.514c4.023 0 6.056 4.889 3.205 7.735-2.847 2.847-7.736.823-7.736-3.204a4.53 4.53 0 0 1 4.531-4.531Zm-2.108 23.649a1.44 1.44 0 0 1 0 2.033c-.902.902-2.458.26-2.458-1.017.004-1.277 1.556-1.918 2.458-1.016Zm-1.017-3.515c4.023 0 6.056 4.89 3.205 7.736-2.847 2.847-7.736.822-7.736-3.205a4.53 4.53 0 0 1 4.531-4.53ZM70.206 64.344c0-.858.69-1.548 1.548-1.548.857 0 1.547.69 1.547 1.548v2.802h2.378c.858 0 1.547.69 1.547 1.547 0 .858-.69 1.547-1.547 1.547h-5.8c-1.688 0-2.599 2.07-1.366 3.298.354.354.836.57 1.366.57h3.307c4.434 0 6.732 5.402 3.554 8.585a5.03 5.03 0 0 1-3.44 1.476v2.807c0 .858-.689 1.547-1.546 1.547s-1.548-.69-1.548-1.547v-2.802h-3.651c-.858 0-1.547-.69-1.547-1.548 0-.857.69-1.547 1.547-1.547h6.64c1.688 0 2.599-2.068 1.366-3.297-.61-.61-1.185-.57-1.928-.57h-2.75c-4.433 0-6.732-5.402-3.553-8.585a5 5 0 0 1 3.554-1.477h.327zm11.781 37.83c0-.858.69-1.547 1.547-1.547.858 0 1.547.689 1.547 1.547v6.71c0 .858-.69 1.547-1.547 1.547a1.543 1.543 0 0 1-1.547-1.547zm8.483 6.162c0-.858.69-1.547 1.547-1.547.858 0 1.547.689 1.547 1.547v1.211c0 .858-.69 1.547-1.547 1.547a1.543 1.543 0 0 1-1.547-1.547zm0-10.9c0-.858.69-1.548 1.547-1.548.858 0 1.547.69 1.547 1.547v5.968c0 .857-.69 1.547-1.547 1.547s-1.547-.69-1.547-1.547zm8.479 2.408c0-.857.69-1.547 1.547-1.547s1.547.69 1.547 1.547v6.711c0 .857-.69 1.547-1.547 1.547-.858 0-1.547-.69-1.547-1.547zm8.483 12.673c0-.857.689-1.547 1.547-1.547.857 0 1.547.69 1.547 1.547v1.212c0 .857-.69 1.547-1.547 1.547-.858 0-1.547-.69-1.547-1.547zm0-10.9c0-.858.689-1.547 1.547-1.547.857 0 1.547.689 1.547 1.547v5.967c0 .858-.69 1.547-1.547 1.547a1.54 1.54 0 0 1-1.547-1.547z" clip-rule="evenodd" mask="url(#c)"/><defs><linearGradient id="a" x1="36" x2="139" y1="87.5" y2="87.5" gradientUnits="userSpaceOnUse"><stop offset=".395" stop-color="#084196"/><stop offset="1" stop-color="#00C0FF"/></linearGradient><linearGradient id="b" x1="36" x2="139" y1="87.5" y2="87.5" gradientUnits="userSpaceOnUse"><stop stop-color="#084398"/><stop offset="1" stop-color="#00BEFD"/></linearGradient></defs></svg>
